X:1
T:Grasshopper Sittin’ on a Sweet Potato Vine
L:1/8
M:2/2
I:linebreak $
K:D
V:1 treble nm="Voice" snm="Voice"
V:1
"D" ABAG FGAd | fafe d4 |"G" BdBA GABA | dA B2 A4 |$ ABAG FGAd | fafe d4 | cccB ABcA | d3 e d4 ::$ %8
 eeed cdef | aeee d4 | BdBA GABA | dA B2 A4 |$ efed cdef | aeee d4 | cdcB ABcA | d3 e d4 :| %16
